advanced/wallets/react-wallet-v2/public/icons/settings-icon.svg

<svg fill="none" height="512" viewBox="0 0 512 512" width="512" xmlns="http://www.w3.org/2000/svg" xmlns:xlink="http://www.w3.org/1999/xlink"><linearGradient id="a" gradientUnits="userSpaceOnUse" x1="48" x2="464" y1="50" y2="462"><stop offset="0" stop-color="#a562d5"/><stop offset="1" stop-color="#306feb"/></linearGradient><path d="m464 249.93c-.135-2.495-1.149-4.863-2.862-6.682s-4.015-2.973-6.498-3.258l-25.64-4.15c-1.153-.189-2.215-.746-3.025-1.588-.811-.841-1.329-1.922-1.475-3.082-.49-3.15-1-6.42-1.7-9.52-.226-1.128-.093-2.297.378-3.346.472-1.049 1.259-1.924 2.252-2.504l22.78-12.65c2.262-1.153 4.021-3.097 4.943-5.463.922-2.365.942-4.987.057-7.367l-3.95-10.9c-.866-2.388-2.583-4.372-4.821-5.573s-4.84-1.535-7.309-.937l-25.55 5c-1.142.204-2.32.042-3.365-.462-1.045-.505-1.904-1.326-2.455-2.348-1.49-2.79-3.11-5.63-4.8-8.42-.614-.994-.901-2.155-.822-3.321.078-1.165.52-2.277 1.262-3.179l17-19.64c1.727-1.854 2.719-4.274 2.791-6.806.072-2.533-.782-5.005-2.401-6.954l-7.42-8.91c-1.614-1.956-3.897-3.243-6.405-3.612-2.509-.37-5.065.205-7.175 1.612l-22.37 13.43c-.992.594-2.148.854-3.299.74-1.151-.113-2.234-.594-3.091-1.37-2.47-2.17-5-4.26-7.37-6.19-.91-.718-1.567-1.707-1.876-2.824-.309-1.116-.255-2.302.156-3.386l9.26-24.4c1.009-2.3281 1.127-4.9456.332-7.3551-.794-2.4096-2.446-4.4433-4.642-5.7149l-10.09-5.89c-2.197-1.2669-4.784-1.6787-7.266-1.1565s-4.684 1.9416-6.184 3.9865l-16.35 20.54c-.588.8928-1.469 1.5528-2.491 1.8667s-2.121.262-3.109-.1467c-.61-.25-5.77-2.36-9.78-3.7-1.1-.3585-2.056-1.0595-2.729-2.0005-.673-.9411-1.027-2.0727-1.011-3.2295l.39-26.07c.139-2.5456-.654-5.0547-2.232-7.0574-1.577-2.0028-3.831-3.3618-6.338-3.8226l-11.45-2c-2.495-.431-5.061.0584-7.222 1.3771-2.161 1.3188-3.77 3.3772-4.528 5.7929l-8.5 24.81c-.386 1.1014-1.115 2.05-2.079 2.7069-.965.6569-2.115.9874-3.281.9431h-9.75c-1.157.0238-2.292-.3182-3.244-.9771s-1.671-1.6013-2.056-2.6929l-8.46-24.67c-.744-2.4333-2.35-4.5119-4.517-5.8464-2.166-1.3346-4.745-1.8336-7.253-1.4036l-11.47 2c-2.491.4572-4.732 1.8029-6.306 3.7873-1.575 1.9844-2.375 4.4726-2.254 7.0027l.4 26.16c.008 1.1741-.363 2.3194-1.059 3.2654-.695.946-1.678 1.6421-2.801 1.9846-2.29.89-7.26 2.79-9.52 3.63-2 .72-4.18-.07-5.94-2.1l-16.26-20c-1.492-2.0573-3.692-3.4906-6.176-4.024-2.485-.5335-5.079-.1296-7.284 1.134l-10.06 5.83c-2.22 1.274-3.889 3.3244-4.687 5.7562-.797 2.4317-.667 5.0727.367 7.4138l9.25 24.34c.404 1.086.457 2.271.152 3.388-.305 1.118-.953 2.112-1.852 2.842-2.43 2-4.92 4-7.4 6.22-.852.77-1.927 1.248-3.07 1.363-1.142.115-2.292-.138-3.28-.723l-22.11-13.69c-2.123-1.381-4.677-1.94-7.183-1.572-2.506.369-4.791 1.639-6.427 3.572l-7.39 8.89c-1.6415 1.936-2.5114 4.409-2.4431 6.946s1.0699 4.959 2.8132 6.804l17.0799 19.62c.758.884 1.211 1.989 1.292 3.151.081 1.161-.214 2.318-.842 3.299-1.71 2.72-3.34 5.58-4.82 8.44-.554 1.029-1.419 1.856-2.472 2.362-1.052.507-2.239.667-3.388.458l-25.51-4.93c-2.4699-.596-5.0727-.262-7.3119.939-2.2391 1.201-3.9578 3.184-4.8281 5.571l-4 10.88c-.8841 2.383-.8634 5.007.0581 7.375.9216 2.369 2.68 4.317 4.9419 5.475l22.78 12.65c1.0245.565 1.8371 1.449 2.3152 2.517.478 1.068.5956 2.262.3348 3.403l-.2399 1.27c-.52 2.79-1 5.43-1.46 8.24-.1591 1.145-.6761 2.21-1.4771 3.044-.8011.833-1.8452 1.392-2.983 1.596l-25.6899 4.15c-2.5124.308-4.8266 1.521-6.5104 3.411s-2.6221 4.328-2.6397 6.859v11.58c-.0146 2.541.9141 4.997 2.6063 6.892 1.6922 1.896 4.0275 3.096 6.5537 3.368l25.68 4.14c1.154.188 2.2161.744 3.0274 1.586.8112.842 1.3279 1.924 1.4726 3.084.49 3.16 1.0001 6.42 1.7001 9.52.2255 1.128.0933 2.297-.3782 3.346s-1.2588 1.924-2.2518 2.504l-22.7701 12.67c-2.2619 1.153-4.0212 3.097-4.9431 5.463-.9219 2.365-.9421 4.987-.0569 7.367l4 10.9c.8683 2.386 2.5851 4.369 4.8226 5.57s4.8389 1.536 7.3074.94l25.55-4.95c1.143-.207 2.322-.047 3.367.458 1.046.505 1.905 1.328 2.453 2.352 1.5 2.8 3.11 5.63 4.8 8.42.617.993.906 2.155.827 3.321s-.522 2.278-1.267 3.179l-17 19.63c-1.7471 1.84-2.7622 4.255-2.8542 6.79-.0921 2.536.7451 5.018 2.3542 6.98l7.41 8.91c1.613 1.958 3.895 3.246 6.405 3.616 2.509.369 5.066-.207 7.175-1.616l22.37-13.43c.992-.594 2.148-.854 3.299-.74 1.151.113 2.234.594 3.091 1.37 2.48 2.17 5 4.26 7.37 6.19.909.719 1.566 1.707 1.877 2.823s.259 2.302-.147 3.387l-9.27 24.4c-1.008 2.328-1.127 4.946-.332 7.355.795 2.41 2.447 4.443 4.642 5.715l10.11 5.84c2.196 1.268 4.782 1.681 7.264 1.161s4.684-1.938 6.186-3.981l16.55-20.35c1.4-1.73 3.6-2.5 5.23-1.84 3.48 1.44 5.81 2.25 9.94 3.63 1.1.359 2.057 1.06 2.731 2.001.675.941 1.032 2.072 1.019 3.229l-.4 26.05c-.135 2.545.66 5.052 2.237 7.053 1.577 2.002 3.828 3.362 6.333 3.827l11.45 2c2.495.435 5.064-.052 7.226-1.371 2.162-1.32 3.77-3.381 4.524-5.799l8.5-24.77c.385-1.102 1.113-2.052 2.078-2.709s2.116-.987 3.282-.941h9.75c1.158-.025 2.294.316 3.245.975.952.659 1.671 1.603 2.055 2.695l8.47 24.67c.656 2.142 1.981 4.017 3.781 5.35 1.8 1.334 3.979 2.056 6.219 2.06.597.001 1.193-.052 1.78-.16l11.47-2c2.491-.457 4.732-1.803 6.307-3.787 1.574-1.985 2.375-4.473 2.253-7.003l-.4-26.16c-.008-1.153.352-2.278 1.026-3.213.674-.934 1.628-1.63 2.724-1.987 3.84-1.29 6.54-2.33 8.91-3.25l.6-.23c3.1-1.07 4.6.23 5.47 1.31l16.75 20.63c1.501 2.041 3.702 3.456 6.182 3.977 2.479.52 5.063.108 7.258-1.157l10.07-5.83c2.203-1.272 3.86-3.311 4.655-5.728.795-2.416.672-5.04-.345-7.372l-9.24-24.34c-.408-1.084-.464-2.27-.161-3.388.304-1.118.951-2.112 1.851-2.842 2.43-2 4.92-4 7.4-6.22.857-.773 1.939-1.25 3.088-1.361 1.148-.112 2.302.148 3.292.741l22.39 13.4c2.122 1.383 4.677 1.943 7.183 1.575 2.507-.368 4.792-1.64 6.427-3.575l7.4-8.9c1.642-1.936 2.511-4.409 2.443-6.946s-1.07-4.959-2.813-6.804l-17.06-19.67c-.758-.884-1.211-1.989-1.292-3.151-.081-1.161.214-2.318.842-3.299 1.71-2.71 3.34-5.57 4.82-8.44.556-1.027 1.422-1.852 2.474-2.358 1.052-.507 2.237-.668 3.386-.462l25.48 4.97c2.47.596 5.073.262 7.312-.939s3.958-3.184 4.828-5.571l3.95-10.88c.884-2.381.863-5.004-.059-7.371-.922-2.366-2.68-4.312-4.941-5.469l-22.8-12.67c-1.01-.571-1.809-1.452-2.279-2.513-.471-1.061-.586-2.245-.331-3.377l.24-1.27c.52-2.79 1-5.43 1.46-8.24.159-1.145.676-2.21 1.477-3.044.801-.833 1.845-1.392 2.983-1.596l25.69-4.14c2.519-.304 4.84-1.515 6.53-3.408 1.69-1.892 2.632-4.335 2.65-6.872zm-282.45 94c-1.246 2.167-2.989 4.007-5.084 5.37-2.096 1.362-4.485 2.208-6.971 2.468-2.486.259-4.999-.075-7.331-.975s-4.417-2.34-6.084-4.203c-22.529-24.91-34.968-57.32-34.89-90.906s12.667-65.939 35.31-90.744c1.676-1.862 3.77-3.299 6.11-4.193s4.859-1.219 7.349-.948c2.49.27 4.881 1.129 6.974 2.504 2.094 1.375 3.83 3.229 5.067 5.407l45.65 80.35c1.371 2.396 2.092 5.109 2.092 7.87s-.721 5.474-2.092 7.87zm74.45 47.18c-9.516.002-19.006-1.003-28.31-3-2.424-.542-4.686-1.646-6.603-3.225s-3.436-3.587-4.432-5.862c-.996-2.276-1.443-4.753-1.303-7.233s.862-4.891 2.108-7.04l46-80c1.384-2.411 3.379-4.413 5.785-5.806 2.405-1.392 5.136-2.125 7.915-2.124h92.14c2.482-.004 4.93.577 7.146 1.696 2.215 1.118 4.136 2.743 5.607 4.742 1.47 2 2.449 4.318 2.857 6.766s.233 4.958-.51 7.326c-17.49 54.32-68.4 93.76-128.4 93.76zm7.51-163.9-45.51-80.14c-1.233-2.152-1.943-4.564-2.072-7.041-.128-2.477.327-4.95 1.331-7.218s2.527-4.268 4.447-5.839 4.182-2.668 6.604-3.202c9.105-1.919 18.385-2.884 27.69-2.88 60 0 110.91 39.44 128.37 93.79.743 2.368.918 4.878.51 7.326s-1.387 4.766-2.857 6.766c-1.471 1.999-3.392 3.624-5.607 4.742-2.216 1.119-4.664 1.7-7.146 1.696h-92c-2.797.006-5.545-.732-7.962-2.138-2.418-1.406-4.419-3.429-5.798-5.862z" fill="url(#a)"/></svg>

<svg width="512" height="512" viewBox="0 0 512 512" fill="none" xmlns="http://www.w3.org/2000/svg">
<path d="M464 249.93C463.865 247.435 462.851 245.067 461.138 243.248C459.425 241.429 457.123 240.275 454.64 239.99L429 235.84C427.847 235.651 426.785 235.094 425.975 234.252C425.164 233.411 424.646 232.33 424.5 231.17C424.01 228.02 423.5 224.75 422.8 221.65C422.574 220.522 422.707 219.353 423.178 218.304C423.65 217.255 424.437 216.38 425.43 215.8L448.21 203.15C450.472 201.997 452.231 200.053 453.153 197.687C454.075 195.322 454.095 192.7 453.21 190.32L449.26 179.42C448.394 177.032 446.677 175.048 444.439 173.847C442.201 172.646 439.599 172.312 437.13 172.91L411.58 177.91C410.438 178.114 409.26 177.952 408.215 177.448C407.17 176.943 406.311 176.122 405.76 175.1C404.27 172.31 402.65 169.47 400.96 166.68C400.346 165.686 400.059 164.525 400.138 163.359C400.216 162.194 400.658 161.082 401.4 160.18L418.4 140.54C420.127 138.686 421.119 136.266 421.191 133.734C421.263 131.201 420.409 128.729 418.79 126.78L411.37 117.87C409.756 115.914 407.473 114.627 404.965 114.258C402.456 113.888 399.9 114.463 397.79 115.87L375.42 129.3C374.428 129.894 373.272 130.154 372.121 130.04C370.97 129.927 369.887 129.446 369.03 128.67C366.56 126.5 364.03 124.41 361.66 122.48C360.75 121.762 360.093 120.773 359.784 119.656C359.475 118.54 359.529 117.354 359.94 116.27L369.2 91.87C370.209 89.5419 370.327 86.9244 369.532 84.5149C368.738 82.1053 367.086 80.0716 364.89 78.8L354.8 72.91C352.603 71.6431 350.016 71.2313 347.534 71.7535C345.052 72.2757 342.85 73.6951 341.35 75.74L325 96.28C324.412 97.1728 323.531 97.8328 322.509 98.1467C321.487 98.4606 320.388 98.4087 319.4 98C318.79 97.75 313.63 95.64 309.62 94.3C308.52 93.9415 307.564 93.2405 306.891 92.2995C306.218 91.3584 305.864 90.2268 305.88 89.07L306.27 63C306.409 60.4544 305.616 57.9453 304.038 55.9426C302.461 53.9398 300.207 52.5808 297.7 52.12L286.25 50.12C283.755 49.689 281.189 50.1784 279.028 51.4971C276.867 52.8159 275.258 54.8743 274.5 57.29L266 82.1C265.614 83.2014 264.885 84.15 263.921 84.8069C262.956 85.4638 261.806 85.7943 260.64 85.75H250.89C249.733 85.7738 248.598 85.4318 247.646 84.7729C246.694 84.114 245.975 83.1716 245.59 82.08L237.13 57.41C236.386 54.9767 234.78 52.8981 232.613 51.5636C230.447 50.229 227.868 49.73 225.36 50.16L213.89 52.16C211.399 52.6172 209.158 53.9629 207.584 55.9473C206.009 57.9317 205.209 60.4199 205.33 62.95L205.73 89.11C205.738 90.2841 205.367 91.4294 204.671 92.3754C203.976 93.3214 202.993 94.0175 201.87 94.36C199.58 95.25 194.61 97.15 192.35 97.99C190.35 98.71 188.17 97.92 186.41 95.89L170.15 75.89C168.658 73.8327 166.458 72.3994 163.974 71.866C161.489 71.3325 158.895 71.7364 156.69 73L146.63 78.83C144.41 80.104 142.741 82.1544 141.943 84.5862C141.146 87.0179 141.276 89.6589 142.31 92L151.56 116.34C151.964 117.426 152.017 118.611 151.712 119.728C151.407 120.846 150.759 121.84 149.86 122.57C147.43 124.57 144.94 126.57 142.46 128.79C141.608 129.56 140.533 130.038 139.39 130.153C138.248 130.268 137.098 130.015 136.11 129.43L114 115.74C111.877 114.359 109.323 113.8 106.817 114.168C104.311 114.537 102.026 115.807 100.39 117.74L93 126.63C91.3585 128.566 90.4886 131.039 90.5569 133.576C90.6252 136.113 91.6268 138.535 93.3701 140.38L110.45 160C111.208 160.884 111.661 161.989 111.742 163.151C111.823 164.312 111.528 165.469 110.9 166.45C109.19 169.17 107.56 172.03 106.08 174.89C105.526 175.919 104.661 176.746 103.608 177.252C102.556 177.759 101.369 177.919 100.22 177.71L74.71 172.78C72.2401 172.184 69.6373 172.518 67.3981 173.719C65.159 174.92 63.4403 176.903 62.57 179.29L58.57 190.17C57.6859 192.553 57.7066 195.177 58.6281 197.545C59.5497 199.914 61.3081 201.862 63.57 203.02L86.35 215.67C87.3745 216.235 88.1871 217.119 88.6652 218.187C89.1432 219.255 89.2608 220.449 89 221.59L88.7601 222.86C88.2401 225.65 87.7601 228.29 87.3001 231.1C87.141 232.245 86.624 233.31 85.823 234.144C85.0219 234.977 83.9778 235.536 82.84 235.74L57.1501 239.89C54.6377 240.198 52.3235 241.411 50.6397 243.301C48.9559 245.191 48.0176 247.629 48 250.16V261.74C47.9854 264.281 48.9141 266.737 50.6063 268.632C52.2985 270.528 54.6338 271.728 57.16 272L82.84 276.14C83.994 276.328 85.0561 276.884 85.8674 277.726C86.6786 278.568 87.1953 279.65 87.34 280.81C87.83 283.97 88.3401 287.23 89.0401 290.33C89.2656 291.458 89.1334 292.627 88.6619 293.676C88.1904 294.725 87.4031 295.6 86.4101 296.18L63.64 308.85C61.3781 310.003 59.6188 311.947 58.6969 314.313C57.775 316.678 57.7548 319.3 58.64 321.68L62.64 332.58C63.5083 334.966 65.2251 336.949 67.4626 338.15C69.7001 339.351 72.3015 339.686 74.77 339.09L100.32 334.14C101.463 333.933 102.642 334.093 103.687 334.598C104.733 335.103 105.592 335.926 106.14 336.95C107.64 339.75 109.25 342.58 110.94 345.37C111.557 346.363 111.846 347.525 111.767 348.691C111.688 349.857 111.245 350.969 110.5 351.87L93.5 371.5C91.7529 373.34 90.7378 375.755 90.6458 378.29C90.5537 380.826 91.3909 383.308 93 385.27L100.41 394.18C102.023 396.138 104.305 397.426 106.815 397.796C109.324 398.165 111.881 397.589 113.99 396.18L136.36 382.75C137.352 382.156 138.508 381.896 139.659 382.01C140.81 382.123 141.893 382.604 142.75 383.38C145.23 385.55 147.75 387.64 150.12 389.57C151.029 390.289 151.686 391.277 151.997 392.393C152.308 393.509 152.256 394.695 151.85 395.78L142.58 420.18C141.572 422.508 141.453 425.126 142.248 427.535C143.043 429.945 144.695 431.978 146.89 433.25L157 439.09C159.196 440.358 161.782 440.771 164.264 440.251C166.746 439.731 168.948 438.313 170.45 436.27L187 415.92C188.4 414.19 190.6 413.42 192.23 414.08C195.71 415.52 198.04 416.33 202.17 417.71C203.27 418.069 204.227 418.77 204.901 419.711C205.576 420.652 205.933 421.783 205.92 422.94L205.52 448.99C205.385 451.535 206.18 454.042 207.757 456.043C209.334 458.045 211.585 459.405 214.09 459.87L225.54 461.87C228.035 462.305 230.604 461.818 232.766 460.499C234.928 459.179 236.536 457.118 237.29 454.7L245.79 429.93C246.175 428.828 246.903 427.878 247.868 427.221C248.833 426.564 249.984 426.234 251.15 426.28H260.9C262.058 426.255 263.194 426.596 264.145 427.255C265.097 427.914 265.816 428.858 266.2 429.95L274.67 454.62C275.326 456.762 276.651 458.637 278.451 459.97C280.251 461.304 282.43 462.026 284.67 462.03C285.267 462.031 285.863 461.978 286.45 461.87L297.92 459.87C300.411 459.413 302.652 458.067 304.227 456.083C305.801 454.098 306.602 451.61 306.48 449.08L306.08 422.92C306.072 421.767 306.432 420.642 307.106 419.707C307.78 418.773 308.734 418.077 309.83 417.72C313.67 416.43 316.37 415.39 318.74 414.47L319.34 414.24C322.44 413.17 323.94 414.47 324.81 415.55L341.56 436.18C343.061 438.221 345.262 439.636 347.742 440.157C350.221 440.677 352.805 440.265 355 439L365.07 433.17C367.273 431.898 368.93 429.859 369.725 427.442C370.52 425.026 370.397 422.402 369.38 420.07L360.14 395.73C359.732 394.646 359.676 393.46 359.979 392.342C360.283 391.224 360.93 390.23 361.83 389.5C364.26 387.5 366.75 385.5 369.23 383.28C370.087 382.507 371.169 382.03 372.318 381.919C373.466 381.807 374.62 382.067 375.61 382.66L398 396.06C400.122 397.443 402.677 398.003 405.183 397.635C407.69 397.267 409.975 395.995 411.61 394.06L419.01 385.16C420.652 383.224 421.521 380.751 421.453 378.214C421.385 375.677 420.383 373.255 418.64 371.41L401.58 351.74C400.822 350.856 400.369 349.751 400.288 348.589C400.207 347.428 400.502 346.271 401.13 345.29C402.84 342.58 404.47 339.72 405.95 336.85C406.506 335.823 407.372 334.998 408.424 334.492C409.476 333.985 410.661 333.824 411.81 334.03L437.29 339C439.76 339.596 442.363 339.262 444.602 338.061C446.841 336.86 448.56 334.877 449.43 332.49L453.38 321.61C454.264 319.229 454.243 316.606 453.321 314.239C452.399 311.873 450.641 309.927 448.38 308.77L425.58 296.1C424.57 295.529 423.771 294.648 423.301 293.587C422.83 292.526 422.715 291.342 422.97 290.21L423.21 288.94C423.73 286.15 424.21 283.51 424.67 280.7C424.829 279.555 425.346 278.49 426.147 277.656C426.948 276.823 427.992 276.264 429.13 276.06L454.82 271.92C457.339 271.616 459.66 270.405 461.35 268.512C463.04 266.62 463.982 264.177 464 261.64V249.93V249.93ZM181.55 343.93C180.304 346.097 178.561 347.937 176.466 349.3C174.37 350.662 171.981 351.508 169.495 351.768C167.009 352.027 164.496 351.693 162.164 350.793C159.832 349.893 157.747 348.453 156.08 346.59C133.551 321.68 121.112 289.27 121.19 255.684C121.268 222.098 133.857 189.745 156.5 164.94C158.176 163.078 160.27 161.641 162.61 160.747C164.95 159.853 167.469 159.528 169.959 159.799C172.449 160.069 174.84 160.928 176.933 162.303C179.027 163.678 180.763 165.532 182 167.71L227.65 248.06C229.021 250.456 229.742 253.169 229.742 255.93C229.742 258.691 229.021 261.404 227.65 263.8L181.55 343.93ZM256 391.11C246.484 391.112 236.994 390.107 227.69 388.11C225.266 387.568 223.004 386.464 221.087 384.885C219.17 383.306 217.651 381.298 216.655 379.023C215.659 376.747 215.212 374.27 215.352 371.79C215.492 369.31 216.214 366.899 217.46 364.75L263.46 284.75C264.844 282.339 266.839 280.337 269.245 278.944C271.65 277.552 274.381 276.819 277.16 276.82H369.3C371.782 276.816 374.23 277.397 376.446 278.516C378.661 279.634 380.582 281.259 382.053 283.258C383.523 285.258 384.502 287.576 384.91 290.024C385.318 292.472 385.143 294.982 384.4 297.35C366.91 351.67 316 391.11 256 391.11ZM263.51 227.21L218 147.07C216.767 144.918 216.057 142.506 215.928 140.029C215.8 137.552 216.255 135.079 217.259 132.811C218.263 130.543 219.786 128.543 221.706 126.972C223.626 125.401 225.888 124.304 228.31 123.77C237.415 121.851 246.695 120.886 256 120.89C316 120.89 366.91 160.33 384.37 214.68C385.113 217.048 385.288 219.558 384.88 222.006C384.472 224.454 383.493 226.772 382.023 228.772C380.552 230.771 378.631 232.396 376.416 233.514C374.2 234.633 371.752 235.214 369.27 235.21H277.27C274.473 235.216 271.725 234.478 269.308 233.072C266.89 231.666 264.889 229.643 263.51 227.21Z" fill="url(#paint0_linear_46_10)"/>
<defs>
<linearGradient id="paint0_linear_46_10" x1="48" y1="50" x2="464" y2="462" gradientUnits="userSpaceOnUse">
<stop stop-color="#A562D5"/>
<stop offset="1" stop-color="#306FEB"/>
</linearGradient>
</defs>
</svg>
